(Fuselage front 10 cm - r2)
(T2  D=2.5 CR=0 - ZMIN=-15 - flat end mill)
G90 G94
G17
G21
G28 G91 Z0
G90

(2D Contour9)
S5000 M3
G54
M8
G0 X11.92 Y16.076
Z3
Z2
G1 Z-14.75 F140
Y16.083 Z-14.806
X11.922 Y16.101 Z-14.858
X11.925 Y16.131 Z-14.906
X11.929 Y16.17 Z-14.945
X11.933 Y16.217 Z-14.975
X11.938 Y16.27 Z-14.994
X11.944 Y16.325 Z-15
X11.968 Y16.574
G3 X11.743 Y16.847 I-0.249 J0.024
G2 X10.614 Y18.091 I0.12 J1.244
G1 Y100.684
G2 X11.605 Y101.907 I1.25 J0
G1 X13.647 Y102.339
X15.684 Y102.78
X17.719 Y103.229
X19.751 Y103.687
X21.781 Y104.153
X23.808 Y104.628
X25.833 Y105.109
X27.855 Y105.6
X29.875 Y106.1
X31.893 Y106.607
X33.908 Y107.122
X35.921 Y107.646
X37.932 Y108.178
X39.941 Y108.718
X41.947 Y109.265
X43.952 Y109.821
X45.954 Y110.385
X47.954 Y110.956
X49.953 Y111.536
X51.949 Y112.123
X53.944 Y112.719
X55.936 Y113.322
X57.927 Y113.933
X59.917 Y114.552
X62.202 Y115.267
X62.209 Y115.269
X63.788 Y115.753
X65.367 Y116.247
X65.373 Y116.249
X66.956 Y116.735
X70.122 Y117.705
X70.132 Y117.708
X73.3 Y118.65
X73.304 Y118.651
X76.472 Y119.582
X76.475 Y119.583
X76.787 Y119.674
G2 X78.387 Y118.474 I0.35 J-1.2
G1 Y115.211
X80.321 Y115.275
X83.547 Y115.383
X86.773 Y115.49
X106.129 Y116.134
X106.133
X109.358 Y116.231
X112.582 Y116.339
X115.809 Y116.446
X119.035 Y116.553
X122.26 Y116.66
X125.486 Y116.768
X128.713 Y116.875
X131.938 Y116.982
X135.164 Y117.09
X138.391 Y117.197
X141.617 Y117.304
X144.842 Y117.411
X148.068 Y117.519
X151.295 Y117.626
X154.52 Y117.733
X157.746 Y117.841
X160.973 Y117.948
X164.199 Y118.055
X167.424 Y118.162
X173.876 Y118.377
X173.88
X177.105 Y118.474
X183.552 Y118.689
X186.77 Y118.816
X189.986 Y118.953
X193.197 Y119.118
X196.406 Y119.312
X199.608 Y119.536
X202.805 Y119.809
X205.998 Y120.121
X209.181 Y120.49
X212.344 Y120.926
X213.889 Y121.205
X215.433 Y121.553
X216.972 Y121.956
X218.431 Y122.412
X219.481 Y122.934
X219.915 Y123.269
X220.366 Y123.764
X220.555 Y124.057
X220.633 Y124.225
X220.675 Y124.355
G2 X222.581 Y124.994 I1.189 J-0.385
G1 X254.17 Y102.875
G3 X292.476 Y88.933 I45.169 J64.508
G1 X306.185 Y87.733
G2 X348.16 Y75.429 I-9.696 J-110.827
X353.114 Y67.238 I-4.295 J-8.192
G1 Y35.238
G2 X351.361 Y29.821 I-9.25 J0.001
G1 X351.343 Y29.796
X351.196 Y29.603
X351.161 Y29.559
X351.004 Y29.371
X350.956 Y29.316
X350.618 Y28.956
X350.559 Y28.896
X350.197 Y28.559
X350.145 Y28.514
X349.77 Y28.2
X349.729 Y28.167
X349.34 Y27.869
X349.299 Y27.84
X348.889 Y27.551
X348.856 Y27.528
X348.431 Y27.25
X348.4 Y27.23
X347.963 Y26.961
X347.936 Y26.945
X347.491 Y26.686
X347.467 Y26.673
X347.018 Y26.425
X346.986 Y26.408
X346.09 Y25.947
X346.055 Y25.93
X345.174 Y25.511
X345.144 Y25.497
X344.231 Y25.092
X344.206 Y25.081
X343.26 Y24.686
X343.237 Y24.677
X342.263 Y24.293
X342.242 Y24.285
X341.245 Y23.912
X341.227 Y23.905
X340.211 Y23.543
X340.195 Y23.538
X339.168 Y23.188
X339.153 Y23.183
X338.12 Y22.846
X338.106 Y22.841
X337.071 Y22.516
X337.059 Y22.512
X336.028 Y22.2
X336.012 Y22.195
X333.984 Y21.611
X333.966 Y21.606
X332.019 Y21.077
X332.003 Y21.072
X330.103 Y20.583
X330.089 Y20.579
X328.104 Y20.092
X328.091 Y20.089
X326.018 Y19.603
X326.006 Y19.6
X323.845 Y19.117
X323.833 Y19.115
X321.585 Y18.635
X321.574 Y18.632
X319.24 Y18.156
X319.229 Y18.154
X316.807 Y17.681
X316.797 Y17.68
X314.291 Y17.212
X314.282 Y17.21
X311.69 Y16.747
X311.68 Y16.745
X309.003 Y16.288
X308.995 Y16.287
X306.234 Y15.836
X306.225 Y15.834
X303.381 Y15.39
X303.373 Y15.389
X300.445 Y14.951
X300.437 Y14.95
X297.427 Y14.521
X297.419 Y14.519
X294.327 Y14.098
X294.319 Y14.097
X291.145 Y13.684
X291.138 Y13.683
X287.883 Y13.28
X287.876 Y13.279
X284.54 Y12.886
X284.533 Y12.885
X281.117 Y12.501
X281.11
X277.594 Y12.126
X277.588 Y12.125
X273.922 Y11.755
X273.915 Y11.754
X270.096 Y11.39
X270.089 Y11.389
X266.116 Y11.032
X266.109 Y11.031
X261.982 Y10.683
X261.975
X257.691 Y10.345
X257.684
X253.244 Y10.02
X253.237 Y10.019
X248.64 Y9.708
X248.634
X243.879 Y9.412
X243.872
X238.958 Y9.133
X238.951
X233.877 Y8.873
X233.87
X228.636 Y8.634
X228.629
X223.233 Y8.417
X223.226 Y8.416
X217.668 Y8.223
X217.662
X211.942 Y8.055
X211.935
X206.05 Y7.914
X206.043
X199.994 Y7.802
X199.987
X193.772 Y7.72
X193.766
X187.385 Y7.67
X187.378
X180.829 Y7.653
X180.823
X174.107 Y7.672
X174.1
X167.215 Y7.727
X167.208 Y7.728
X160.154 Y7.822
X160.148
X152.923 Y7.956
X152.916
X145.549 Y8.131
X145.543
X138.147 Y8.344
X138.141
X130.728 Y8.594
X130.722
X123.296 Y8.88
X123.29 Y8.881
X115.852 Y9.201
X115.846 Y9.202
X108.399 Y9.557
X108.394
X100.939 Y9.945
X100.934
X93.475 Y10.366
X93.47
X86.009 Y10.818
X86.004
X78.543 Y11.3
X78.538
X71.079 Y11.811
X71.074 Y11.812
X63.621 Y12.351
X63.616 Y12.352
X56.169 Y12.919
X56.165
X48.727 Y13.512
X48.723 Y13.513
X41.297 Y14.132
X41.293
X33.882 Y14.776
X33.877 Y14.777
X26.483 Y15.444
X26.478
X19.102 Y16.135
X19.098
X11.743 Y16.847
G3 X11.47 Y16.622 I-0.024 J-0.249
G1 X11.446 Y16.373
X11.441 Y16.318 Z-14.994
X11.436 Y16.265 Z-14.975
X11.431 Y16.218 Z-14.945
X11.427 Y16.179 Z-14.906
X11.424 Y16.149 Z-14.858
X11.423 Y16.131 Z-14.806
X11.422 Y16.125 Z-14.75
G0 Z3
M9
G28 G91 Z0
G90
G28 G91 X0 Y0
G90
M5
M30

(Fuselage front part - R2 )
(T2  D=2.5 CR=0 - ZMIN=0 - flat end mill)
G90 G94
G17
G21
G28 G91 Z0
G90

(2D Contour8)
S5000 M3
G54
M8
G0 X16.595 Y20.719
Z3
Z2
G1 Z0.25 F150
X16.596 Y20.726 Z0.194
X16.598 Y20.744 Z0.142
X16.601 Y20.774 Z0.094
X16.604 Y20.813 Z0.055
X16.609 Y20.86 Z0.025
X16.614 Y20.913 Z0.006
X16.619 Y20.968 Z0
X16.644 Y21.217
G3 X16.419 Y21.49 I-0.249 J0.024
G2 X15.289 Y22.734 I0.12 J1.244
G1 Y105.327
G2 X16.28 Y106.55 I1.25 J0
G1 X18.323 Y106.982
X20.36 Y107.423
X22.395 Y107.872
X24.427 Y108.33
X26.456 Y108.796
X28.484 Y109.271
X30.509 Y109.752
X32.53 Y110.243
X34.551 Y110.743
X36.568 Y111.25
X38.583 Y111.765
X40.597 Y112.289
X42.608 Y112.821
X44.616 Y113.361
X46.623 Y113.908
X48.627 Y114.464
X50.63 Y115.028
X52.63 Y115.599
X54.628 Y116.179
X56.625 Y116.766
X58.619 Y117.362
X60.612 Y117.965
X62.603 Y118.576
X64.593 Y119.195
X66.877 Y119.91
X66.884 Y119.912
X68.463 Y120.396
X70.042 Y120.891
X70.049 Y120.893
X71.632 Y121.378
X74.798 Y122.348
X74.808 Y122.351
X77.975 Y123.293
X77.979 Y123.294
X81.148 Y124.225
X81.15 Y124.226
X81.462 Y124.317
G2 X83.062 Y123.117 I0.35 J-1.2
G1 Y119.855
X84.996 Y119.919
X88.223 Y120.026
G2 X89.514 Y118.777 I0.041 J-1.249
G1 Y106.77
G2 X88.306 Y105.521 I-1.25 J0
G1 X85.479 Y105.427
X79.027 Y105.213
X75.801 Y105.105
X67.736 Y104.837
X67.064 Y104.815
X65.956 Y104.494
X64.696 Y104.131
X64.694 Y104.13
X63.434 Y103.769
X63.433
X62.173 Y103.409
X62.171
X60.91 Y103.051
X60.909 Y103.05
X59.648 Y102.693
X59.646
X58.385 Y102.338
X57.122 Y101.983
X57.12
X55.858 Y101.631
X54.594 Y101.28
X54.592 Y101.279
X53.329 Y100.93
X53.328
X52.065 Y100.582
X52.063 Y100.581
X50.799 Y100.235
X50.798
X49.534 Y99.89
X49.532
X48.268 Y99.547
X48.267 Y99.546
X47.001 Y99.204
X47
X45.734 Y98.864
X44.467 Y98.524
X44.465
X43.199 Y98.187
X43.197 Y98.186
X41.931 Y97.851
X41.929 Y97.85
X40.662 Y97.516
X40.66
X39.392 Y97.184
X39.391 Y97.183
X38.123 Y96.853
X38.122 Y96.852
X37.789 Y96.766
Y37.787
X322.616
X335.289
Y72.082
G3 X309.597 Y77.932 I-34.124 J-90.533
G1 X295.888 Y79.131
G2 X250.529 Y95.64 I8.127 J92.895
G1 X226.048 Y112.782
X225.682 Y112.668
X225.626 Y112.652
X223.562 Y112.11
X223.519 Y112.099
X221.473 Y111.64
X221.422 Y111.63
X219.328 Y111.25
X219.275 Y111.242
X215.694 Y110.75
X215.669 Y110.746
X214.159 Y110.57
G2 X212.764 Y111.812 I-0.145 J1.242
G1 Y123.893
G2 X213.844 Y125.131 I1.25 J0
G1 X217.02 Y125.569
X218.564 Y125.848
X220.109 Y126.196
X221.648 Y126.599
X223.107 Y127.055
X224.156 Y127.576
X224.589 Y127.911
X225.042 Y128.408
X225.231 Y128.7
X225.307 Y128.866
X225.349 Y128.997
G2 X227.256 Y129.638 I1.19 J-0.383
G1 X258.846 Y107.518
G3 X297.152 Y93.576 I45.169 J64.508
G1 X310.861 Y92.377
G2 X352.836 Y80.072 I-9.696 J-110.827
X357.789 Y71.881 I-4.297 J-8.192
G1 Y39.881
G2 X356.037 Y34.464 I-9.25 J0
G1 X356.019 Y34.439
X355.872 Y34.246
X355.837 Y34.202
X355.68 Y34.014
X355.631 Y33.958
X355.292 Y33.597
X355.234 Y33.539
X354.872 Y33.202
X354.822 Y33.158
X354.448 Y32.844
X354.403 Y32.809
X354.013 Y32.511
X353.976 Y32.484
X353.566 Y32.195
X353.532 Y32.172
X353.107 Y31.893
X353.076 Y31.873
X352.639 Y31.604
X352.612 Y31.588
X352.167 Y31.329
X352.142 Y31.315
X351.692 Y31.067
X351.661 Y31.051
X350.766 Y30.59
X350.731 Y30.573
X349.85 Y30.154
X349.82 Y30.14
X348.907 Y29.735
X348.881 Y29.724
X347.935 Y29.329
X347.912 Y29.32
X346.937 Y28.936
X346.917 Y28.928
X345.92 Y28.555
X345.902 Y28.548
X344.888 Y28.187
X344.871 Y28.181
X343.844 Y27.831
X343.829 Y27.826
X342.795 Y27.488
X342.782 Y27.484
X341.748 Y27.159
X341.735 Y27.155
X340.704 Y26.843
X340.688 Y26.838
X338.66 Y26.254
X338.642 Y26.249
X336.695 Y25.72
X336.679 Y25.715
X334.779 Y25.226
X334.765 Y25.222
X332.78 Y24.735
X332.767 Y24.732
X330.694 Y24.246
X330.682 Y24.243
X328.521 Y23.76
X328.509 Y23.758
X326.261 Y23.278
X326.25 Y23.275
X323.915 Y22.799
X323.904 Y22.797
X321.483 Y22.324
X321.473 Y22.323
X318.966 Y21.855
X318.957 Y21.853
X316.365 Y21.39
X316.356 Y21.388
X313.68 Y20.931
X313.671 Y20.93
X310.91 Y20.479
X310.901 Y20.477
X308.057 Y20.033
X308.049 Y20.032
X305.121 Y19.594
X305.113 Y19.593
X302.103 Y19.164
X302.095 Y19.162
X299.002 Y18.741
X298.994 Y18.74
X295.821 Y18.327
X295.814 Y18.326
X292.559 Y17.923
X292.551 Y17.922
X289.215 Y17.529
X289.208 Y17.528
X285.793 Y17.145
X285.786 Y17.144
X282.27 Y16.769
X282.264 Y16.768
X278.598 Y16.398
X278.591 Y16.397
X274.772 Y16.033
X274.765 Y16.032
X270.792 Y15.675
X270.785
X266.657 Y15.326
X266.65
X262.367 Y14.988
X262.36
X257.92 Y14.663
X257.913 Y14.662
X253.316 Y14.351
X253.31
X248.555 Y14.055
X248.548
X243.634 Y13.776
X243.627
X238.553 Y13.516
X238.546
X233.312 Y13.277
X233.305
X227.909 Y13.06
X227.902 Y13.059
X222.344 Y12.866
X222.338
X216.617 Y12.698
X216.61
X210.725 Y12.557
X210.718
X204.669 Y12.445
X204.662
X198.447 Y12.363
X198.441
X192.06 Y12.313
X192.053
X185.505 Y12.296
X185.499
X178.783 Y12.315
X178.776
X171.891 Y12.371
X171.884
X164.829 Y12.465
X164.823
X157.599 Y12.599
X157.592
X150.225 Y12.774
X150.219
X142.823 Y12.987
X142.817
X135.404 Y13.237
X135.398
X127.972 Y13.523
X127.966 Y13.524
X120.527 Y13.845
X120.521
X113.074 Y14.2
X113.069
X105.615 Y14.588
X105.61
X98.151 Y15.009
X98.145
X90.684 Y15.461
X90.679
X83.218 Y15.943
X83.213
X75.755 Y16.454
X75.75 Y16.455
X68.296 Y16.994
X68.292 Y16.995
X60.845 Y17.562
X60.84
X53.403 Y18.156
X53.399
X45.973 Y18.775
X45.969
X38.557 Y19.419
X38.553 Y19.42
X31.158 Y20.087
X31.154
X23.778 Y20.778
X23.774
X16.419 Y21.49
G3 X16.146 Y21.265 I-0.024 J-0.249
G1 X16.122 Y21.016
X16.116 Y20.961 Z0.006
X16.111 Y20.908 Z0.025
X16.107 Y20.861 Z0.055
X16.103 Y20.822 Z0.094
X16.1 Y20.792 Z0.142
X16.098 Y20.774 Z0.194
Y20.768 Z0.25
G0 Z3
M9
G28 G91 Z0
G90
G28 G91 X0 Y0
G90
M5
M30

(Airplane wheels)
(T2  D=2.5 CR=0 - ZMIN=0 - flat end mill)
G90 G94
G17
G21
G28 G91 Z0
G90

(2D Contour5)
S5000 M3
G54
M8
G0 X52.189 Y6.279
Z3
G1 Z1 F130
Y6.286 Z0.879
X52.19 Y6.308 Z0.761
X52.191 Y6.344 Z0.645
X52.192 Y6.393 Z0.535
X52.193 Y6.456 Z0.432
X52.195 Y6.53 Z0.337
X52.197 Y6.615 Z0.251
X52.2 Y6.71 Z0.177
X52.202 Y6.814 Z0.115
X52.205 Y6.924 Z0.065
X52.208 Y7.039 Z0.029
X52.211 Y7.158 Z0.007
X52.214 Y7.278 Z0
X52.238 Y8.278
G3 X51.263 Y9.302 I-1 J0.025
G2 X52.797 Y71.783 I0.767 J31.241
X83.28 Y40.543 I-0.767 J-31.241
G1 Y40.419
G2 X52.03 Y9.293 I-31.25 J0.123
X51.263 Y9.302 I0 J31.25
G3 X50.239 Y8.327 I-0.025 J-1
G1 X50.214 Y7.327
X50.211 Y7.207 Z0.007
X50.208 Y7.088 Z0.029
X50.206 Y6.973 Z0.065
X50.203 Y6.863 Z0.115
X50.2 Y6.759 Z0.177
X50.198 Y6.664 Z0.251
X50.196 Y6.579 Z0.337
X50.194 Y6.505 Z0.432
X50.192 Y6.442 Z0.535
X50.191 Y6.393 Z0.645
X50.19 Y6.357 Z0.761
Y6.335 Z0.879
Y6.328 Z1
G0 Z3
X123.815 Y6.278
G1 Z1 F130
Y6.285 Z0.879
X123.816 Y6.307 Z0.761
X123.817 Y6.343 Z0.645
X123.818 Y6.393 Z0.535
X123.82 Y6.455 Z0.432
X123.821 Y6.53 Z0.337
X123.823 Y6.615 Z0.251
X123.826 Y6.71 Z0.177
X123.828 Y6.813 Z0.115
X123.831 Y6.923 Z0.065
X123.834 Y7.039 Z0.029
X123.837 Y7.157 Z0.007
X123.84 Y7.278 Z0
X123.864 Y8.278
G3 X122.889 Y9.302 I-1 J0.025
G2 X92.406 Y40.543 I0.767 J31.241
X123.656 Y71.793 I31.25 J0
X154.906 Y40.543 I0 J-31.25
G1 Y40.442
G2 X123.656 Y9.292 I-31.25 J0.101
X122.889 Y9.302 I0 J31.25
G3 X121.865 Y8.327 I-0.025 J-1
G1 X121.84 Y7.327
X121.837 Y7.206 Z0.007
X121.834 Y7.088 Z0.029
X121.832 Y6.972 Z0.065
X121.829 Y6.862 Z0.115
X121.826 Y6.759 Z0.177
X121.824 Y6.664 Z0.251
X121.822 Y6.579 Z0.337
X121.82 Y6.504 Z0.432
X121.819 Y6.442 Z0.535
X121.817 Y6.392 Z0.645
X121.816 Y6.356 Z0.761
Y6.335 Z0.879
Y6.327 Z1
G0 Z3
X187.835 Y16.293
G1 Z1 F130
G19 G3 Y17.293 Z0 J1 K0
G1 Y18.293
G17 G3 X186.835 Y19.293 I-1 J0
G2 X165.585 Y40.543 I0 J21.25
G1 Y40.644
G2 X186.835 Y61.793 I21.25 J-0.101
X186.835 Y19.293 I0 J-21.25
G3 X185.835 Y18.293 I0 J-1
G1 Y17.293
G19 G2 Y16.293 Z1 J0 K1
G0 Z3
G17
M9
G28 G91 Z0
G90
G28 G91 X0 Y0
G90
M5
M30

(airfoils 2 v2)
(T2  D=2.5 CR=0 - ZMIN=0 - flat end mill)
G90 G94
G17
G21
G28 G91 Z0
G90

(2D Contour4)
T2 M6
S5000 M3
G54
M8
G0 X15.956 Y26.622
Z5
Z3
G1 Z1.25 F170
X15.963 Y26.619 Z1.11
X15.984 Y26.608 Z0.972
X16.018 Y26.59 Z0.837
X16.066 Y26.565 Z0.708
X16.126 Y26.534 Z0.585
X16.198 Y26.496 Z0.471
X16.28 Y26.453 Z0.366
X16.373 Y26.404 Z0.273
X16.474 Y26.351 Z0.192
X16.583 Y26.294 Z0.124
X16.698 Y26.234 Z0.07
X16.817 Y26.172 Z0.031
X16.939 Y26.108 Z0.008
X17.063 Y26.043 Z0
X18.171 Y25.463
G2 X17.965 Y23.163 I-0.58 J-1.108
G3 X18.38 Y20.72 I0.373 J-1.193
G1 X20.709 Y20.798
X28.774 Y21.066
X32.001 Y21.173
X38.453 Y21.388
X41.679 Y21.495
X44.905 Y21.603
X64.259 Y22.246
X67.484 Y22.344
X67.487
X70.713 Y22.451
X73.94 Y22.558
X77.166 Y22.666
X80.392 Y22.773
X83.618 Y22.88
X86.844 Y22.987
X90.07 Y23.095
X93.296 Y23.202
X96.522 Y23.309
X99.748 Y23.417
X102.974 Y23.524
X106.2 Y23.631
X112.652 Y23.846
X119.104 Y24.06
X122.33 Y24.168
X125.556 Y24.275
X132.006 Y24.489
X135.231 Y24.587
X135.235
X141.687 Y24.802
X141.694
X144.919 Y24.929
X144.923
X148.147 Y25.066
X148.158
X151.38 Y25.232
X151.392 Y25.233
X154.612 Y25.428
X154.623 Y25.429
X157.84 Y25.654
X157.859 Y25.656
X161.074 Y25.93
X161.089 Y25.931
X164.3 Y26.245
X164.323 Y26.247
X167.531 Y26.619
X167.557 Y26.622
X170.76 Y27.063
X170.813 Y27.072
X172.409 Y27.361
X172.46 Y27.371
X174.052 Y27.729
X174.095 Y27.739
X175.682 Y28.156
X175.738 Y28.172
X177.321 Y28.667
X177.414 Y28.7
X177.504 Y28.741
X178.752 Y29.36
X178.859 Y29.42
X178.96 Y29.491
X179.577 Y29.968
X179.66 Y30.038
X179.737 Y30.115
X180.332 Y30.768
X180.398 Y30.846
X180.457 Y30.93
X180.751 Y31.385
X180.798 Y31.462
X180.838 Y31.542
X180.983 Y31.858
X181.012 Y31.926
X181.037 Y31.996
X181.102 Y32.198
G3 X181.161 Y32.539 I-1.19 J0.383
G1 X181.187 Y33.3
G3 X181.14 Y33.686 I-1.249 J0.043
G1 X181.035 Y34.053
X181.011 Y34.127
X180.983 Y34.2
X180.889 Y34.42
X180.854 Y34.494
X180.815 Y34.565
X180.625 Y34.887
X180.548 Y35.003
X180.189 Y35.48
X180.145 Y35.536
X180.097 Y35.589
X179.405 Y36.319
X179.332 Y36.391
X178.638 Y37.012
X178.594 Y37.05
X177.224 Y38.167
X177.125 Y38.24
X175.43 Y39.364
X175.314 Y39.432
X173.637 Y40.3
X173.553 Y40.34
X171.886 Y41.052
X171.828 Y41.074
X170.168 Y41.688
X170.098 Y41.712
X166.795 Y42.713
X166.739 Y42.728
X163.447 Y43.563
X163.393 Y43.575
X160.112 Y44.253
X160.066 Y44.262
X156.794 Y44.812
X156.755 Y44.817
X153.491 Y45.26
X153.454 Y45.264
X150.196 Y45.608
X150.152 Y45.612
X146.903 Y45.838
X146.869 Y45.84
X143.626 Y45.978
X143.588 Y45.979
X140.351 Y46.019
X140.329
X137.097 Y46
X137.074
X133.846 Y45.922
X133.831 Y45.921
X130.606 Y45.804
X130.594
X127.37 Y45.657
X127.363
X124.141 Y45.491
X124.125 Y45.49
X120.906 Y45.284
X120.891 Y45.283
X117.675 Y45.039
X117.66 Y45.038
X114.446 Y44.754
X114.431 Y44.752
X111.22 Y44.429
X111.205 Y44.427
X107.997 Y44.065
X107.985 Y44.064
X104.779 Y43.672
X104.764 Y43.67
X101.561 Y43.239
X101.546 Y43.237
X98.345 Y42.767
X98.338 Y42.766
X95.138 Y42.276
X95.127 Y42.274
X91.93 Y41.755
X91.919 Y41.753
X88.724 Y41.204
X88.713 Y41.202
X85.519 Y40.624
X85.508 Y40.622
X82.317 Y40.014
X82.306 Y40.012
X79.117 Y39.375
X79.106 Y39.373
X75.919 Y38.706
X75.912 Y38.705
X72.727 Y38.019
X72.716 Y38.016
X69.532 Y37.301
X69.525 Y37.299
X66.343 Y36.564
X66.339 Y36.563
X63.158 Y35.818
X63.147 Y35.815
X59.967 Y35.041
X59.964 Y35.04
X56.785 Y34.256
X56.774 Y34.253
X53.598 Y33.44
X53.594 Y33.439
X50.418 Y32.615
X50.408 Y32.612
X47.234 Y31.76
X47.23 Y31.759
X44.057 Y30.896
X44.05 Y30.894
X40.878 Y30.012
X40.875 Y30.011
X37.703 Y29.119
X37.693 Y29.116
X34.524 Y28.194
X34.52 Y28.193
X31.352 Y27.262
X31.348 Y27.261
X28.181 Y26.319
X28.17 Y26.316
X25.005 Y25.346
X23.422 Y24.86
X23.415 Y24.858
X21.836 Y24.364
X20.257 Y23.88
X20.25 Y23.878
X17.965 Y23.163
G0 Z3
X20.987 Y63.718
G1 Z1.25 F170
X20.982 Y63.724 Z1.11
X20.964 Y63.74 Z0.972
X20.936 Y63.766 Z0.837
X20.897 Y63.803 Z0.708
X20.847 Y63.849 Z0.585
X20.788 Y63.905 Z0.471
X20.72 Y63.968 Z0.366
X20.644 Y64.04 Z0.273
X20.56 Y64.118 Z0.192
X20.471 Y64.202 Z0.124
X20.376 Y64.29 Z0.07
X20.278 Y64.382 Z0.031
X20.177 Y64.477 Z0.008
X20.075 Y64.572 Z0
X19.162 Y65.426
G2 X19.974 Y67.588 I0.854 J0.913
G1 X22.304 Y67.666
X30.369 Y67.934
X33.595 Y68.041
X40.047 Y68.256
X43.273 Y68.363
X46.499 Y68.47
X65.854 Y69.114
X69.078 Y69.212
X69.082
X72.308 Y69.319
X75.534 Y69.426
X78.76 Y69.534
X81.986 Y69.641
X85.212 Y69.748
X88.438 Y69.855
X91.664 Y69.963
X94.89 Y70.07
X98.116 Y70.177
X101.343 Y70.285
X104.569 Y70.392
X107.795 Y70.499
X123.925 Y71.036
X127.151 Y71.143
X133.601 Y71.357
X136.826 Y71.455
X136.83
X143.282 Y71.669
X143.289 Y71.67
X146.513 Y71.797
X146.517
X149.741 Y71.934
X149.752
X152.974 Y72.1
X152.986 Y72.101
X156.206 Y72.296
X156.217 Y72.297
X159.435 Y72.522
X159.454 Y72.524
X162.668 Y72.798
X162.683 Y72.799
X165.895 Y73.112
X165.918 Y73.115
X169.125 Y73.487
X169.151 Y73.49
X172.354 Y73.931
X172.407 Y73.939
X174.004 Y74.229
X174.055 Y74.239
X175.646 Y74.597
X175.689 Y74.607
X177.277 Y75.024
X177.333 Y75.04
X178.915 Y75.535
X179.008 Y75.568
X179.098 Y75.608
X180.346 Y76.228
X180.453 Y76.288
X180.554 Y76.358
X181.172 Y76.835
X181.255 Y76.905
X181.332 Y76.983
X181.927 Y77.636
X181.994 Y77.715
X182.053 Y77.8
X182.346 Y78.254
X182.391 Y78.329
X182.431 Y78.407
X182.577 Y78.723
X182.606 Y78.793
X182.632 Y78.864
X182.697 Y79.066
G3 X182.756 Y79.408 I-1.19 J0.383
G1 X182.781 Y80.169
G3 X182.735 Y80.551 I-1.249 J0.041
G1 X182.631 Y80.918
X182.606 Y80.996
X182.576 Y81.073
X182.481 Y81.293
X182.447 Y81.364
X182.409 Y81.433
X182.219 Y81.755
X182.143 Y81.869
X181.785 Y82.347
X181.74 Y82.403
X181.692 Y82.457
X181 Y83.187
X180.927 Y83.259
X180.233 Y83.88
X180.189 Y83.918
X178.819 Y85.035
X178.72 Y85.108
X177.025 Y86.232
X176.909 Y86.3
X175.231 Y87.168
X175.147 Y87.208
X173.481 Y87.919
X173.423 Y87.942
X171.763 Y88.556
X171.693 Y88.58
X168.39 Y89.581
X168.334 Y89.596
X165.042 Y90.431
X164.988 Y90.443
X161.707 Y91.121
X161.661 Y91.129
X158.389 Y91.679
X158.35 Y91.685
X155.085 Y92.127
X155.048 Y92.132
X151.791 Y92.476
X151.747 Y92.48
X148.497 Y92.706
X148.463 Y92.708
X145.22 Y92.846
X145.182 Y92.847
X141.946 Y92.887
X141.924
X138.692 Y92.868
X138.669
X135.441 Y92.79
X135.426 Y92.789
X132.2 Y92.672
X132.188
X128.965 Y92.525
X128.958
X125.736 Y92.359
X125.72 Y92.358
X122.501 Y92.152
X122.486 Y92.151
X119.27 Y91.907
X119.255 Y91.905
X116.041 Y91.622
X116.026 Y91.62
X112.815 Y91.297
X112.8 Y91.295
X109.592 Y90.933
X109.58 Y90.932
X106.374 Y90.54
X106.359 Y90.538
X103.155 Y90.107
X103.14 Y90.105
X99.94 Y89.635
X99.933 Y89.633
X96.733 Y89.144
X96.722 Y89.142
X93.525 Y88.622
X93.514 Y88.621
X90.318 Y88.072
X90.307 Y88.07
X87.114 Y87.492
X87.103 Y87.49
X83.912 Y86.882
X83.901 Y86.88
X80.712 Y86.243
X80.701 Y86.241
X77.514 Y85.574
X77.507 Y85.573
X74.321 Y84.886
X74.31 Y84.884
X71.127 Y84.168
X71.12 Y84.167
X67.937 Y83.432
X67.934 Y83.431
X64.752 Y82.686
X64.741 Y82.683
X61.562 Y81.909
X61.558 Y81.908
X58.38 Y81.124
X58.369 Y81.121
X55.192 Y80.308
X55.189 Y80.307
X52.013 Y79.483
X52.002 Y79.48
X48.828 Y78.627
X48.825
X45.652 Y77.764
X45.645 Y77.762
X42.473 Y76.88
X42.469 Y76.879
X39.298 Y75.986
X39.288 Y75.983
X36.118 Y75.062
X36.115 Y75.061
X32.947 Y74.13
X32.943 Y74.129
X29.775 Y73.187
X29.765 Y73.184
X26.599 Y72.214
X25.016 Y71.728
X25.01 Y71.726
X23.431 Y71.232
X21.852 Y70.748
X21.845 Y70.746
X19.559 Y70.031
G3 X19.974 Y67.588 I0.373 J-1.193
G0 Z5
M9
G28 G91 Z0
G90
G28 G91 X0 Y0
G90
M5
M30

(Fuselage back part 50mm)
(T1  D=2 CR=0 - ZMIN=1 - flat end mill)
G90 G94
G17
G21
G28 G91 Z0
G90

(2D Contour22)
T1 M6
S5000 M3
G54
G0 X13.704 Y24.632
Z7
G1 Z3 F333.3
Z1.2
Y24.639 Z1.148
X13.702 Y24.659 Z1.1
X13.7 Y24.691 Z1.059
X13.696 Y24.732 Z1.027
X13.692 Y24.78 Z1.007
X13.688 Y24.832 Z1
X13.671 Y25.031 F400
G3 X13.455 Y25.214 I-0.199 J-0.017
G2 X12.372 Y26.21 I-0.083 J0.997
G1 Y108.279
G2 X13.552 Y109.263 I1 J0
G1 X17.883 Y108.468
X22.128 Y107.729
X26.292 Y107.04
X30.375 Y106.401
X34.378 Y105.808
X38.301 Y105.259
X42.144 Y104.751
X45.908 Y104.283
X49.592 Y103.851
X53.197 Y103.452
X56.723 Y103.085
X60.17 Y102.748
X63.539 Y102.436
X66.829 Y102.148
X70.08 Y101.88
X73.387 Y101.623
X76.752 Y101.376
X80.172 Y101.14
X83.645 Y100.914
X87.168 Y100.698
X90.738 Y100.492
X94.353 Y100.296
X98.009 Y100.109
X101.705 Y99.931
X105.436 Y99.762
X109.199 Y99.603
X116.819 Y99.309
X124.539 Y99.049
X132.338 Y98.82
X140.194 Y98.622
X148.087 Y98.452
X155.991 Y98.309
X163.887 Y98.191
X171.754 Y98.097
X179.567 Y98.026
X187.305 Y97.975
X194.95 Y97.943
G2 X195.946 Y96.943 I-0.004 J-1
G1 Y87.939
X195.953
X196.119
X196.283 Y87.938
X196.447
X196.774
X196.935
X197.099 Y87.939
X197.265
X197.433
X197.603
X197.775 Y87.94
X197.945
X198.116 Y87.941
X198.286
X198.454 Y87.942
X198.621
X198.783 Y87.943
X198.942
X198.946
X263.372
G2 X264.372 Y86.943 I0 J-1
G1 Y74.944
G2 X256.253 Y64.327 I-11 J0
G1 X256.251
X252.013 Y63.188
X252.008 Y63.187
X247.742 Y62.062
X247.737 Y62.061
X243.444 Y60.951
X243.44 Y60.95
X239.117 Y59.854
X239.112 Y59.853
X234.759 Y58.771
X234.755 Y58.77
X230.373 Y57.703
X230.368 Y57.702
X225.955 Y56.648
X225.951 Y56.647
X221.507 Y55.608
X221.502 Y55.607
X217.026 Y54.582
X217.022 Y54.581
X212.514 Y53.57
X212.509 Y53.569
X207.968 Y52.572
X207.964 Y52.571
X203.389 Y51.588
X203.385 Y51.587
X198.777 Y50.618
X198.773 Y50.617
X194.13 Y49.662
X194.125 Y49.661
X189.446 Y48.719
X189.442 Y48.718
X184.729 Y47.79
X184.725
X179.975 Y46.875
X179.971 Y46.874
X175.184 Y45.974
X175.18 Y45.973
X170.356 Y45.086
X170.352 Y45.085
X165.49 Y44.212
X165.486 Y44.211
X160.586 Y43.351
X160.582 Y43.35
X155.642 Y42.503
X155.638
X150.66 Y41.669
X150.656
X145.637 Y40.849
X145.633 Y40.848
X140.573 Y40.041
X140.57
X135.469 Y39.247
X135.465
X130.323 Y38.467
X130.319 Y38.466
X125.134 Y37.699
X125.131 Y37.698
X119.903 Y36.944
X119.899
X114.627 Y36.203
X114.624 Y36.202
X109.309 Y35.474
X109.305
X103.945 Y34.759
X103.942 Y34.758
X98.537 Y34.056
X98.534
X93.083 Y33.366
X93.08
X87.583 Y32.689
X87.579
X82.036 Y32.025
X82.032
X76.443 Y31.374
X76.44 Y31.373
X70.819 Y30.737
X70.815
X65.167 Y30.117
X65.164 Y30.116
X59.49 Y29.511
X59.487
X53.79 Y28.921
X53.787 Y28.92
X48.071 Y28.346
X48.068 Y28.345
X42.333 Y27.786
X42.33 Y27.785
X36.579 Y27.241
X36.576
X30.812 Y26.711
X30.81
X25.035 Y26.197
X25.032
X19.248 Y25.698
X19.245
X13.455 Y25.214
G3 X13.273 Y24.998 I0.017 J-0.199
G1 X13.289 Y24.798
X13.294 Y24.747 Z1.007
X13.298 Y24.699 Z1.027
X13.301 Y24.657 Z1.059
X13.304 Y24.626 Z1.1
X13.305 Y24.606 Z1.148
X13.306 Y24.599 Z1.2
G0 Z7
G28 G91 Z0
G90
G28 G91 X0 Y0
G90
M5
M30

(Fuselage front part 50mm)
(T1  D=2 CR=0 - ZMIN=-1 - flat end mill)
G90 G94
G17
G21
G28 G91 Z0
G90

(2D Contour22)
T1 M6
S5000 M3
G54
G0 X11.028 Y26.01
Z6
G1 Z2 F333.3
Z-0.8
G18 G2 X11.228 Z-1 I0.2 K0
G1 X11.428 F400
G17 G3 X11.628 Y26.21 I0 J0.2
G1 Y108.279
G2 X12.441 Y109.261 I1 J0
G1 X14.636 Y109.68
X16.85 Y110.112
X19.084 Y110.559
X21.338 Y111.021
X23.613 Y111.498
X25.908 Y111.991
X28.224 Y112.5
X30.56 Y113.025
X32.917 Y113.567
X35.295 Y114.126
X37.693 Y114.702
X40.111 Y115.295
X42.55 Y115.906
X45.011 Y116.536
X47.491 Y117.184
X49.993 Y117.851
X52.515 Y118.536
X55.058 Y119.241
X57.622 Y119.967
X60.207 Y120.711
X62.813 Y121.477
X65.439 Y122.262
X68.087 Y123.07
X70.757 Y123.898
X73.04 Y124.613
X73.046 Y124.615
X74.626 Y125.099
X76.206 Y125.593
X76.211 Y125.595
X77.794 Y126.08
X80.96 Y127.051
X80.968 Y127.054
X84.136 Y127.995
X84.139
X87.307 Y128.926
X87.309 Y128.927
X87.621 Y129.018
G2 X88.901 Y128.058 I0.28 J-0.96
G1 Y124.538
X91.094 Y124.61
X94.32 Y124.717
G2 X95.353 Y123.718 I0.033 J-0.999
G1 Y111.712
G2 X94.386 Y110.713 I-1 J0
G1 X91.559 Y110.619
X85.107 Y110.404
X81.881 Y110.297
X73.816 Y110.029
X73.114 Y110.005
X71.943 Y109.666
X70.653 Y109.295
X69.366 Y108.926
X69.364 Y108.925
X68.08 Y108.559
X66.798 Y108.195
X65.518 Y107.833
X65.516 Y107.832
X64.24 Y107.473
X62.964 Y107.116
X61.692 Y106.761
X61.69 Y106.76
X60.42 Y106.408
X59.153 Y106.057
X59.151
X57.886 Y105.709
X57.885 Y105.708
X56.622 Y105.363
X55.362 Y105.019
X55.36
X54.103 Y104.678
X54.102
X52.846 Y104.339
X52.845 Y104.338
X51.592 Y104.002
X50.341 Y103.667
X50.339
X49.091 Y103.335
X49.09 Y103.334
X47.844 Y103.004
X47.842
X46.599 Y102.677
X45.357 Y102.351
X45.356 Y102.35
X44.117 Y102.027
X44.116
X43.628 Y101.9
Y42.479
X326.628
Y46.479
G2 X327.628 Y47.479 I1 J0
G1 X349.628
Y77.736
G3 X329.582 Y81.908 I-27.628 J-82.497
G1 X296.66 Y84.789
G2 X261.151 Y97.713 I6.363 J72.722
G1 X232.179 Y118
X231.697 Y117.849
X231.652 Y117.836
X229.588 Y117.294
X229.553 Y117.285
X227.507 Y116.825
X227.466 Y116.817
X225.372 Y116.438
X225.33 Y116.431
X221.749 Y115.938
X221.728 Y115.936
X220.218 Y115.761
G2 X219.103 Y116.754 I-0.115 J0.993
G1 Y128.834
G2 X219.967 Y129.825 I1 J0
G1 X223.149 Y130.263
X224.703 Y130.544
X226.257 Y130.894
X227.806 Y131.3
X229.29 Y131.765
X230.379 Y132.305
X230.848 Y132.668
X231.329 Y133.195
X231.539 Y133.521
X231.629 Y133.717
X231.676 Y133.861
G2 X233.202 Y134.374 I0.952 J-0.306
G1 X269.182 Y109.181
G3 X297.88 Y98.735 I33.841 J48.329
G1 X330.802 Y95.855
G2 X356.371 Y90.211 I-8.803 J-100.616
X363.628 Y79.867 I-3.743 J-10.343
G1 Y44.867
G2 X354.98 Y34.122 I-11 J0
G1 X354.978 Y34.121
X352.011 Y33.478
X352.007 Y33.477
X349.067 Y32.85
X349.064 Y32.849
X346.149 Y32.24
X346.145 Y32.239
X343.255 Y31.646
X343.251 Y31.645
X340.385 Y31.068
X340.382 Y31.067
X337.54 Y30.506
X337.536 Y30.505
X334.717 Y29.96
X334.713 Y29.959
X331.917 Y29.43
X331.913 Y29.429
X329.138 Y28.915
X329.134 Y28.914
X326.381 Y28.415
X326.377
X323.644 Y27.93
X323.641
X320.928 Y27.46
X320.924
X318.23 Y27.005
X318.226 Y27.004
X315.551 Y26.563
X315.547 Y26.562
X312.89 Y26.135
X312.886
X310.246 Y25.721
X310.242
X307.619 Y25.321
X307.615 Y25.32
X305.008 Y24.934
X305.004 Y24.933
X302.412 Y24.56
X302.408 Y24.559
X299.832 Y24.198
X299.828
X297.265 Y23.85
X297.261 Y23.849
X294.712 Y23.513
X294.708 Y23.512
X292.172 Y23.189
X292.168 Y23.188
X289.645 Y22.876
X289.639 Y22.875
X284.625 Y22.285
X284.617
X279.646 Y21.739
X279.638 Y21.738
X274.703 Y21.236
X274.696 Y21.235
X269.792 Y20.773
X269.785 Y20.772
X264.908 Y20.348
X264.9
X260.044 Y19.961
X260.037
X255.198 Y19.609
X255.192 Y19.608
X250.363 Y19.29
X250.356 Y19.289
X245.509 Y19.001
X245.503 Y19
X240.445 Y18.733
X240.438 Y18.732
X235.125 Y18.486
X235.119 Y18.485
X229.543 Y18.262
X229.537
X223.691 Y18.064
X223.685
X217.561 Y17.894
X217.555
X211.147 Y17.755
X211.141
X204.44 Y17.648
X204.434
X197.433 Y17.576
X197.428
X190.12 Y17.541
X190.116
X186.344 Y17.538
X186.341
X182.49 Y17.546
X182.487
X178.556 Y17.563
X178.554
X174.541 Y17.592
X174.538
X170.442 Y17.631
X170.44
X166.262 Y17.682
X166.259
X161.996 Y17.745
X161.994
X157.646 Y17.819
X157.644
X153.21 Y17.905
X153.207
X148.686 Y18.004
X148.684
X144.075 Y18.116
X144.073
X139.375 Y18.24
X139.372
X134.584 Y18.378
X134.582
X129.704 Y18.53
X129.702
X124.732 Y18.695
X124.73
X119.667 Y18.874
X119.664 Y18.875
X114.52 Y19.068
X114.518
X109.336 Y19.274
X109.334 Y19.275
X104.121 Y19.494
X104.119
X98.877 Y19.726
X98.874
X93.605 Y19.971
X93.602
X88.307 Y20.229
X88.305
X82.986 Y20.5
X82.984 Y20.501
X77.643 Y20.784
X77.641 Y20.785
X72.28 Y21.081
X72.278 Y21.082
X66.9 Y21.391
X66.898 Y21.392
X61.504 Y21.714
X61.502 Y21.715
X56.094 Y22.051
X56.092
X50.672 Y22.4
X50.67
X45.24 Y22.762
X45.238
X39.8 Y23.138
X39.798
X34.354 Y23.526
X34.352 Y23.527
X28.904 Y23.928
X28.902
X23.451 Y24.343
X23.449 Y24.344
X17.999 Y24.772
X17.996
X12.547 Y25.213
G2 X11.628 Y26.21 I0.081 J0.997
G3 X11.428 Y26.41 I-0.2 J0
G1 X11.228
G18 G3 X11.028 Z-0.8 I0 K0.2
G0 Z6
G17
G28 G91 Z0
G90
G28 G91 X0 Y0
G90
M5
M30

(Fuselage front part 10mm)
(T1  D=2 CR=0 - ZMIN=-1 - flat end mill)
G90 G94
G17
G21
G28 G91 Z0
G90

(2D Contour18)
T1 M6
S5000 M3
G54
G0 X13.897 Y15.449
Z10
Z5
G1 Z1 F333.3
Z-0.8
X13.898 Y15.456 Z-0.852
X13.9 Y15.476 Z-0.9
X13.902 Y15.508 Z-0.941
X13.905 Y15.549 Z-0.973
X13.909 Y15.597 Z-0.993
X13.914 Y15.649 Z-1
X13.93 Y15.848 F400
G3 X13.746 Y16.063 I-0.199 J0.016
G2 X12.827 Y17.06 I0.081 J0.997
G1 Y99.139
G2 X13.64 Y100.121 I1 J0
G1 X15.835 Y100.539
X18.049 Y100.971
X20.283 Y101.418
X22.537 Y101.88
X24.812 Y102.357
X27.107 Y102.85
X29.423 Y103.359
X31.759 Y103.884
X34.116 Y104.426
X36.493 Y104.985
X38.891 Y105.561
X41.31 Y106.155
X43.749 Y106.765
X46.209 Y107.395
X48.69 Y108.043
X51.192 Y108.71
X53.714 Y109.395
X56.257 Y110.101
X58.821 Y110.826
X61.406 Y111.57
X64.011 Y112.336
X66.638 Y113.121
X69.285 Y113.929
X71.955 Y114.758
X74.24 Y115.472
X74.245 Y115.474
X75.825 Y115.958
X77.405 Y116.452
X77.41 Y116.454
X78.993 Y116.939
X82.158 Y117.91
X82.167 Y117.913
X85.335 Y118.854
X85.337
X88.506 Y119.786
X88.511 Y119.788
X88.823 Y119.878
G2 X90.1 Y118.917 I0.277 J-0.961
G1 Y115.397
X95.519 Y115.576
X98.745 Y115.684
X118.101 Y116.327
X118.104 Y116.328
X121.329 Y116.425
X127.78 Y116.639
X131.006 Y116.747
X134.232 Y116.854
X137.458 Y116.961
X140.684 Y117.069
X143.91 Y117.176
X147.136 Y117.283
X150.362 Y117.39
X153.588 Y117.498
X156.814 Y117.605
X160.04 Y117.712
X163.266 Y117.82
X166.492 Y117.927
X169.718 Y118.034
X172.944 Y118.141
X176.17 Y118.249
X179.396 Y118.356
X185.848 Y118.571
X185.851 Y118.572
X189.076 Y118.669
X195.524 Y118.883
X198.744 Y119.01
X201.962 Y119.146
X205.175 Y119.311
X208.386 Y119.507
X211.591 Y119.731
X214.792 Y120.004
X217.988 Y120.315
X221.176 Y120.686
X224.347 Y121.122
X225.902 Y121.403
X227.456 Y121.753
X229.004 Y122.159
X230.489 Y122.624
X231.578 Y123.165
X232.048 Y123.527
X232.528 Y124.054
X232.738 Y124.38
X232.828 Y124.576
X232.875 Y124.72
G2 X234.401 Y125.233 I0.952 J-0.306
G1 X270.381 Y100.04
G3 X299.079 Y89.594 I33.841 J48.33
G1 X332.001 Y86.714
G2 X357.57 Y81.07 I-8.803 J-100.616
X364.827 Y70.726 I-3.743 J-10.343
G1 Y35.726
G2 X356.179 Y24.981 I-11 J0
G1 X356.177 Y24.98
X353.21 Y24.337
X353.206 Y24.336
X350.266 Y23.709
X350.263
X347.348 Y23.099
X347.344 Y23.098
X344.454 Y22.505
X344.45 Y22.504
X341.584 Y21.927
X341.581 Y21.926
X338.739 Y21.365
X338.735 Y21.364
X335.916 Y20.819
X335.912
X333.116 Y20.289
X333.112 Y20.288
X330.337 Y19.774
X330.333 Y19.773
X327.58 Y19.274
X327.576
X324.843 Y18.79
X324.84 Y18.789
X322.127 Y18.319
X322.123
X319.429 Y17.864
X319.425 Y17.863
X316.75 Y17.422
X316.746 Y17.421
X314.089 Y16.994
X314.085
X311.445 Y16.581
X311.441 Y16.58
X308.818 Y16.18
X308.814
X306.207 Y15.793
X306.203 Y15.792
X303.611 Y15.419
X303.607 Y15.418
X301.031 Y15.057
X301.027
X298.464 Y14.709
X298.46 Y14.708
X295.911 Y14.372
X295.907
X293.371 Y14.048
X293.367 Y14.047
X290.843 Y13.735
X290.837 Y13.734
X285.824 Y13.145
X285.816 Y13.144
X280.845 Y12.598
X280.837 Y12.597
X275.902 Y12.095
X275.895 Y12.094
X270.991 Y11.632
X270.983 Y11.631
X266.106 Y11.208
X266.099 Y11.207
X261.243 Y10.82
X261.236
X256.397 Y10.468
X256.391
X251.562 Y10.149
X251.555
X246.708 Y9.86
X246.702
X241.644 Y9.592
X241.637 Y9.591
X236.324 Y9.345
X236.318 Y9.344
X230.742 Y9.121
X230.736
X224.89 Y8.923
X224.884
X218.76 Y8.753
X218.754
X212.346 Y8.614
X212.34
X205.639 Y8.507
X205.633
X198.632 Y8.435
X198.627
X191.319 Y8.4
X191.315
X187.544 Y8.397
X187.541
X183.69 Y8.405
X183.687
X179.755 Y8.422
X179.753
X175.74 Y8.451
X175.737
X171.642 Y8.49
X171.64
X167.461 Y8.541
X167.458
X163.195 Y8.604
X163.193
X158.845 Y8.678
X158.843
X154.409 Y8.764
X154.406
X149.885 Y8.863
X149.883
X145.274 Y8.975
X145.271
X140.574 Y9.099
X140.571
X135.783 Y9.237
X135.781
X130.903 Y9.389
X130.901
X125.931 Y9.554
X125.929
X120.867 Y9.733
X120.864 Y9.734
X115.719 Y9.927
X115.717
X110.536 Y10.134
X110.534
X105.321 Y10.353
X105.319
X100.076 Y10.585
X100.074
X94.804 Y10.83
X94.802
X89.506 Y11.088
X89.504
X84.185 Y11.359
X84.183
X78.842 Y11.643
X78.84
X73.48 Y11.94
X73.478
X68.1 Y12.249
X68.097
X62.704 Y12.572
X62.701
X57.294 Y12.908
X57.291
X51.872 Y13.256
X51.869 Y13.257
X46.44 Y13.618
X46.438
X41 Y13.993
X40.997
X35.554 Y14.381
X35.551
X30.103 Y14.782
X30.101
X24.651 Y15.196
X24.648
X19.198 Y15.623
X19.195
X13.746 Y16.063
G3 X13.531 Y15.88 I-0.016 J-0.199
G1 X13.515 Y15.681
X13.511 Y15.629 Z-0.993
X13.507 Y15.581 Z-0.973
X13.503 Y15.54 Z-0.941
X13.501 Y15.508 Z-0.9
X13.499 Y15.488 Z-0.852
Y15.481 Z-0.8
G0 Z10
G28 G91 Z0
G90
G28 G91 X0 Y0
G90
M5
M30

